X:070
T:The Marquis
C:J R Findlater
S:MS Collection, Athole Collection, Perth Library
Z:Nigel Gatherer
N:"Slowish time"
M:4/4
L:1/8
K:Bb
d/e/|f>g f/g/a/b/ f<dd<b|b>gf<d g<c c/d/e|\
f>g f/g/a/b/ f<db<d|b>gf<d B2 b:|
c|d<fe>c d<BB<d|e<gc>B A/B/c/A/ Fd/e/|\
d<ff<d e<gab|g>ec<A B2 b:|
<end>
<start>
